X:1
T:Bird at the Ball
C:T. S. Macdonald
M:6/8
L:1/8
K:D
D | e2 c dAF | GEE E2 F | G2 a agf | gee e2 f | g2 A ABc | dBG GAB | def edc | dAF D2 :|:
g | f2 D FA=c | efa agf | e2 B, DFA | =cAF FGA | F2 g gfg | E2 f fef | def edc | dAF E2 :|]

